img/symbol-defs.svg

<svg aria-hidden="true" style="position: absolute; width: 0; height: 0; overflow: hidden;" version="1.1" xmlns="http://www.w3.org/2000/svg" xmlns:xlink="http://www.w3.org/1999/xlink">
<defs>
<symbol id="icon-check" viewBox="0 0 34 32">
<path fill="#2196f3" style="fill: var(--color1, #2196f3)" d="M4.267 0h25.6c2.356 0 4.267 1.91 4.267 4.267v23.467c0 2.356-1.91 4.267-4.267 4.267h-25.6c-2.356 0-4.267-1.91-4.267-4.267v-23.467c0-2.356 1.91-4.267 4.267-4.267z"></path>
<path fill="#fff" stroke="#fff" stroke-width="0.4267" stroke-miterlimit="4" stroke-linecap="butt" stroke-linejoin="miter" style="fill: var(--color2, #fff); stroke: var(--color2, #fff)" d="M8.442 16.538l-0.147-0.141-0.147 0.139-2.057 1.95 0.162 0.156 7.605 7.253 0.147-0.141 16.171-15.426-0.162-0.154-2.029-1.935-0.147 0.141-13.98 13.325-5.417-5.167z"></path>
</symbol>
<symbol id="Vector1" viewBox="0 0 32 32">
<path d="M27.419 20.853l-4.201-0.48c-0.116-0.014-0.25-0.023-0.385-0.023-0.909 0-1.732 0.369-2.328 0.964l-3.045 3.045c-4.718-2.435-8.467-6.185-10.835-10.764l-0.065-0.139 3.063-3.056c0.597-0.596 0.966-1.42 0.966-2.33 0-0.135-0.008-0.268-0.024-0.399l0.002 0.016-0.48-4.169c-0.199-1.655-1.595-2.926-3.287-2.926-0.001 0-0.003 0-0.004 0h-2.864c-1.87-0.005-3.424 1.55-3.31 3.417 0.878 14.126 12.174 25.408 26.286 26.286 1.867 0.114 3.424-1.44 3.424-3.31v-2.862c0-0.005 0-0.010 0-0.016 0-1.681-1.266-3.067-2.897-3.256l-0.015-0.001z"></path>
</symbol>
<symbol id="Vector21" viewBox="0 0 43 32">
<path d="M37.333 0h-32c-2.2 0-3.981 1.8-3.981 4l-0.019 24c0 2.2 1.8 4 4 4h32c2.2 0 4-1.8 4-4v-24c0-2.2-1.8-4-4-4zM36.533 8.501l-14.139 8.837c-0.302 0.188-0.668 0.3-1.060 0.3s-0.758-0.112-1.069-0.305l0.009 0.005-14.141-8.84c-0.503-0.301-0.835-0.843-0.835-1.463 0-0.938 0.761-1.699 1.699-1.699 0.349 0 0.673 0.105 0.943 0.285l-0.006-0.004 13.4 8.381 13.4-8.381c0.264-0.176 0.588-0.282 0.937-0.282 0.938 0 1.699 0.761 1.699 1.699 0 0.62-0.332 1.162-0.828 1.459l-0.008 0.004z"></path>
</symbol>
<symbol id="Vector3" viewBox="0 0 32 32">
<path d="M16 16c4.418 0 8-3.582 8-8s-3.582-8-8-8v0c-4.418 0-8 3.582-8 8s3.582 8 8 8v0zM16 20c-5.339 0-16 2.68-16 8v2c0 1.099 0.901 2 2 2h28c1.099 0 2-0.901 2-2v-2c0-5.32-10.661-8-16-8z"></path>
</symbol>
<symbol id="Vector61" viewBox="0 0 32 32">
<path d="M32 3.223l-3.223-3.223-12.777 12.777-12.777-12.777-3.223 3.223 12.777 12.777-12.777 12.777 3.223 3.223 12.777-12.777 12.777 12.777 3.223-3.223-12.777-12.777 12.777-12.777z"></path>
</symbol>
</defs>
</svg>

<svg aria-hidden="true" style="position:absolute;width:0;height:0" xmlns="http://www.w3.org/2000/svg" overflow="hidden"><defs><symbol id="icon-send1" viewBox="0 0 32 32"><path fill="var(--color1, #fff)" d="M32 0L0 18l10.227 3.787L26 7 14.003 23.187l.009.003-.012-.003V32l5.735-6.691L27.002 28l4.999-28z"/></symbol><symbol id="icon-check" viewBox="0 0 34 32"><path fill="var(--color2, #2196f3)" d="M4.267 0h25.6a4.267 4.267 0 014.267 4.267v23.467a4.267 4.267 0 01-4.267 4.267h-25.6A4.267 4.267 0 010 27.734V4.267A4.267 4.267 0 014.267 0z"/><path fill="var(--color1, #fff)" stroke="var(--color1, #fff)" stroke-width=".427" d="M8.442 16.538l-.147-.141-.147.139-2.057 1.95.162.156 7.605 7.253.147-.141 16.171-15.426-.162-.154-2.029-1.935-.147.141-13.98 13.325-5.417-5.167z"/></symbol><symbol id="Vector1" viewBox="0 0 32 32"><path d="M27.419 20.853l-4.201-.48a3.28 3.28 0 00-2.713.941l-3.045 3.045c-4.718-2.435-8.467-6.185-10.835-10.764l-.065-.139L9.623 10.4a3.282 3.282 0 00.942-2.729l.002.016-.48-4.169A3.314 3.314 0 006.8.592H3.932C2.062.587.508 2.142.622 4.009 1.5 18.135 12.796 29.417 26.908 30.295c1.867.114 3.424-1.44 3.424-3.31v-2.862-.016a3.279 3.279 0 00-2.897-3.256l-.015-.001z"/></symbol><symbol id="Vector21" viewBox="0 0 43 32"><path d="M37.333 0h-32c-2.2 0-3.981 1.8-3.981 4l-.019 24c0 2.2 1.8 4 4 4h32c2.2 0 4-1.8 4-4V4c0-2.2-1.8-4-4-4zm-.8 8.501l-14.139 8.837a2.02 2.02 0 01-2.129-.005l.009.005-14.141-8.84A1.7 1.7 0 117.94 5.621l-.006-.004 13.4 8.381 13.4-8.381a1.7 1.7 0 111.808 2.876l-.008.004z"/></symbol><symbol id="Vector3" viewBox="0 0 32 32"><path d="M16 16a8 8 0 000-16 8 8 0 000 16zm0 4c-5.339 0-16 2.68-16 8v2c0 1.099.901 2 2 2h28c1.099 0 2-.901 2-2v-2c0-5.32-10.661-8-16-8z"/></symbol><symbol id="Vector61" viewBox="0 0 32 32"><path d="M32 3.223L28.777 0 16 12.777 3.223 0 0 3.223 12.777 16 0 28.777 3.223 32 16 19.223 28.777 32 32 28.777 19.223 16 32 3.223z"/></symbol></defs></svg>
